X:327
T:Captain Cameron's March
C:Joe Buchanan's Scottish Tome - Page 101.0
I:101 0
R:March
Z:Carl Allison
L:1/8
M:4/4
K:Eb
|"Eb"E4   "G(Eb)"E4|"Eb"E6 "Eb(Bb)"G2 | "Bb"B3 A "Eb"G2 F2| "Eb"E2 B,2 "Eb(Bb)"A,2 G,2 |
|"Eb"E4   "G(Eb)"E4|"Eb"E6 "Eb(Bb)"G2 | "Gm"B3 A "C7"G2 A2 | "Bb"F8 |
|"Eb"E4   "G(Eb)"E4|"Eb"E6 "Eb(Bb)"G2 | "Bb"B3 A "Eb"G2 F2 | "Eb"E2 B,2 "Eb(Bb)"A,2 G,2 |
| "Ab"A,6 "Ab(Eb)"B,>C | "Bb"B,6 "G(Bb)"EF | "Eb"G4 "Ab"E4 | "Eb"E6 E2 :|
| "Eb"g4 "Eb(Bb)"g3 f | "Eb"e6 "Eb(Bb)"e2 | "Eb"d3 e "Bb(F)"fedc | "Eb"B6  "Eb(Bb)"B2 |
| "Eb"g4 g3 f | "Cm"e6 e2 | "Gm"d3 c "Cm"defg | "F7"f6 "Bb"B2 |
| "Eb"g4 "Eb(Bb)"g3 f | "Eb"e6 "Eb(Bb)"e2 | "F"d3 e "Bb(F)"fedc | "Eb"B6 "Eb(Bb)"B2 |
|  "Eb"G4 "G(Eb)"B4 | "Eb"e4 "Bb"B4   |  "Cm"c3 B "Ab"A2 G2 | "Eb"G4 "Bb7"F4 :|
